site/static/images/arrow-download.svg

<svg fill="none" height="14" viewBox="0 0 10 14" width="10" xmlns="http://www.w3.org/2000/svg"><path clip-rule="evenodd" d="m4.46967 9.7803c.29289.2929.76777.2929 1.06066 0l3.74997-3.74997c.2929-.29289.2929-.76777 0-1.06066s-.7677-.29289-1.0606 0l-2.4697 2.46967v-6.68934c0-.41421-.33579-.75-.75-.75s-.75.33579-.75.75v6.68934l-2.46967-2.46967c-.29289-.29289-.76777-.29289-1.06066 0s-.29289.76777 0 1.06066zm-3.71967 2.2198c-.41421 0-.75.3358-.75.75s.33579.75.75.75h8.5c.4142 0 .75-.3358.75-.75s-.3358-.75-.75-.75z" fill="#0075ff" fill-rule="evenodd"/></svg>

<svg width="10" height="14" viewBox="0 0 10 14" fill="none" xmlns="http://www.w3.org/2000/svg">
<path fill-rule="evenodd" clip-rule="evenodd" d="M4.46967 9.7803C4.76256 10.0732 5.23744 10.0732 5.53033 9.7803L9.2803 6.03033C9.5732 5.73744 9.5732 5.26256 9.2803 4.96967C8.9874 4.67678 8.5126 4.67678 8.2197 4.96967L5.75 7.43934V0.75C5.75 0.33579 5.41421 0 5 0C4.58579 0 4.25 0.33579 4.25 0.75V7.43934L1.78033 4.96967C1.48744 4.67678 1.01256 4.67678 0.71967 4.96967C0.42678 5.26256 0.42678 5.73744 0.71967 6.03033L4.46967 9.7803ZM0.75 12.0001C0.33579 12.0001 0 12.3359 0 12.7501C0 13.1643 0.33579 13.5001 0.75 13.5001H9.25C9.6642 13.5001 10 13.1643 10 12.7501C10 12.3359 9.6642 12.0001 9.25 12.0001H0.75Z" fill="#0075ff"/>
</svg>
